X: 7229
T: Clancy From Clare
R: reel
M: 4/4
K: Gmajor
|:FGBG AGEG|DEGA BddB|FGBG AGEG|1 DEGB AAFA:|2 DEGB AAGB||
d2Bd e2 dB|GABG AGEG|dGBd e2dB|GABG AAGB|
d2Bd e2 dB|GABG AGEG|DEGA Bde2|dBAB AAFA||

